X: 52
T:Doed a Ddel
M:6/8
L:1/8
Q:160
C:Trad
S:Blodau'r Grug Collection Vol. 1
R:Jig
A:Wales
Z:brian_martin12345@yahoo.com
K:D
A|d2d dcd|dcd dcd|e2ee2e|efd cBA|d2d dcd|!dcd efg|fed cBc|d3d2:||
A|A2Fd2d|B2G GAB|!A2Fd2f|ecAA2A|A2Fd2d|B3g3|fed cBA|d3d2:||

